X:1
T: The Erie Hornpipe
C:
R:Reel
Q: 232
K:D
M:4/4
L:1/8
|:A,D|F2 FA GF ED|FA AB A2 FA|AF dF GF ED|CD EF E2 DE|
F2 FA GF ED|FA AB A2 ((3efg)|fd ec dc BA|Bd BF D2:|
|:((3efg)|af dA ba fd|AB AF GF ED|A,D B,D A,D FA|AB AF E2 ((3efg)|
af dA ba fd|AB AF GF ED|Dd cd FA EA|Dd AF D2:|
